X:5906
T:Gan Ainm
R:polka
S:Unknown Accordion 
H:
N:
D:Live Broadcast (Clare FM)
Z:Adrian Scahill
M:2/4
L:1/16
K:G
D2G2 E2GE|D2G2 EFGE|D2G2 A2GA|B2A2 A3E|\
D2G2 E2GE|D2G2 EFGE|D2G2 A2GA|B2G2 G4:||\
d2B2 g2B2|d2B2 g2B2|d2B2 g2B2|c2A2 A2Bc|\
d2B2 g2B2|d2B2 g2B2|G2B2 A2GA|B2G2 G4:||\
